Obsidian-SemiLight/actions/24s/get-hot-new-stuff.svg

<svg viewBox="0 0 24 24" xmlns="http://www.w3.org/2000/svg"><path d="m13 5-2.476562 5.265625-5.523438.84375 4 4.101563-.9453125 5.789062 4.9453125-2.734375 4.945312 2.734375-.945312-5.789062 4-4.101563-5.523438-.84375z" fill="#4d4d4d"/></svg>

<svg xmlns="http://www.w3.org/2000/svg" viewBox="0 0 24 24">
  <defs id="defs3051">
    <style type="text/css" id="current-color-scheme">
      .ColorScheme-Text {
        color:#4d4d4d;
      }
      </style>
  </defs>
 <path style="fill:currentColor;fill-opacity:1;stroke:none" 
     d="M 13 5 L 10.523438 10.265625 L 5 11.109375 L 9 15.210938 L 8.0546875 21 L 13 18.265625 L 17.945312 21 L 17 15.210938 L 21 11.109375 L 15.476562 10.265625 L 13 5 z "
     class="ColorScheme-Text"
     />
</svg>
